lib/flags/m/SR.svg

<svg xmlns="http://www.w3.org/2000/svg" fill="none" viewBox="0 0 20 15"><mask id="SR_svg__a" width="20" height="15" x="0" y="0" mask-type="alpha" maskUnits="userSpaceOnUse"><path fill="#fff" d="M0 0H20V15H0z"/></mask><g mask="url(#SR_svg__a)"><path fill="#4E8B1D" fill-rule="evenodd" d="M0 10H20V15H0V10zM0 0H20V3.75H0V0z" clip-rule="evenodd"/><path fill="#AF0100" stroke="#fff" stroke-width="1.875" d="M0 4.0625H-0.9375V5V10V10.9375H0H20H20.9375V10V5V4.0625H20H0Z"/><path fill="#FECA00" fill-rule="evenodd" d="M10.0015 9.0589L8.4426 10L8.79818 8.16353L7.5 6.78912L9.2578 6.71481L10.0015 5L10.7452 6.71481H12.5L11.2048 8.16353L11.5947 10L10.0015 9.0589Z" clip-rule="evenodd"/></g></svg>

<svg xmlns="http://www.w3.org/2000/svg" fill="none" viewBox="0 0 20 15"><mask id="SR_svg__a" width="20" height="15" x="0" y="0" maskUnits="userSpaceOnUse"><path fill="#fff" d="M0 0h20v15H0z"/></mask><g mask="url(#SR_svg__a)"><path fill="#4E8B1D" fill-rule="evenodd" d="M0 10h20v5H0v-5zM0 0h20v3.75H0V0z" clip-rule="evenodd"/><path fill="#AF0100" stroke="#fff" stroke-width="1.875" d="M0 4.063h-.938v6.875h21.876V4.062H0z"/><path fill="#FECA00" fill-rule="evenodd" d="M10.002 9.059L8.441 10l.356-1.836L7.5 6.789l1.758-.074L10.002 5l.743 1.715H12.5l-1.295 1.449.39 1.836L10 9.059z" clip-rule="evenodd"/></g></svg>
